icons/desktop/20/musical-note-20.svg

<svg width="20" height="20" viewBox="0 0 20 20" fill="none" xmlns="http://www.w3.org/2000/svg">
<path fill-rule="evenodd" clip-rule="evenodd" d="M7.58858 2.39899C10.8015 1.87099 14.1399 1.87019 17.3679 2.39117C18.8929 2.63817 19.9997 3.93607 19.9997 5.47907V16.0513C19.9996 17.0312 19.5448 17.91 18.7819 18.4019C18.177 18.7929 17.4737 18.9996 16.7497 18.9996C15.6388 18.9995 14.5916 18.5116 13.8767 17.6597C13.1628 16.8078 12.8643 15.6846 13.0593 14.5767C13.3364 12.9998 14.6421 11.7477 16.236 11.5338C16.937 11.4408 17.6308 11.5422 18.2497 11.8111V8.24957H6.74971V16.1197C6.74971 17.4327 5.85664 18.601 4.62764 18.897C4.33877 18.967 4.04458 19.0005 3.74971 19.0005C3.52783 19.0005 3.30657 18.9809 3.08468 18.9429C1.57084 18.6808 0.326264 17.4383 0.0592849 15.9224C-0.135527 14.8148 0.163044 13.6912 0.876668 12.8404C1.86863 11.6594 3.57274 11.2095 4.99971 11.7164V5.47711C4.99971 3.93727 6.08882 2.64218 7.58858 2.39899ZM3.75069 13.2486C3.15803 13.2487 2.59938 13.5098 2.21846 13.9634C1.83151 14.4244 1.67699 15.0128 1.78292 15.6187C1.92192 16.4077 2.59546 17.0803 3.38546 17.2173C3.6683 17.2673 3.94955 17.2589 4.22139 17.1939C4.67222 17.0858 4.99971 16.6336 4.99971 16.1187L5.00069 16.1177V13.688C4.64772 13.4061 4.20663 13.2486 3.75069 13.2486ZM16.7429 13.2505C16.6531 13.2506 16.5603 13.2571 16.4685 13.2701C15.6366 13.3821 14.9261 14.0586 14.7819 14.8804C14.6759 15.4864 14.8305 16.0747 15.2175 16.5357C15.8474 17.2855 17.0158 17.4559 17.8317 16.9332C18.0897 16.7662 18.2496 16.4291 18.2497 16.0523L18.2487 16.0533V13.9283C17.8677 13.4963 17.3229 13.2505 16.7429 13.2505ZM17.0886 4.11871C14.0477 3.62679 10.9006 3.6286 7.87081 4.12457C7.2309 4.22965 6.74971 4.81017 6.74971 5.47711V6.49957H18.2497V5.47907C18.2497 4.80007 17.7616 4.22671 17.0886 4.11871Z" fill="black"/>
</svg>

<!-- This Source Code Form is subject to the terms of the Mozilla Public
   - License, v. 2.0. If a copy of the MPL was not distributed with this
   - file, You can obtain one at http://mozilla.org/MPL/2.0/. -->
<svg xmlns="http://www.w3.org/2000/svg" width="20" height="20" fill="context-fill" fill-opacity="context-fill-opacity" viewBox="0 0 20 20">
    <path fill-rule="evenodd" d="M7.589 2.399a30.6 30.6 0 0 1 9.779-.008A3.12 3.12 0 0 1 20 5.48v10.572c0 .98-.455 1.859-1.218 2.35A3.74 3.74 0 0 1 16.75 19a3.74 3.74 0 0 1-2.873-1.34 3.77 3.77 0 0 1-.818-3.083 3.76 3.76 0 0 1 3.177-3.043 3.8 3.8 0 0 1 2.014.277V8.25H6.75v7.87c0 1.313-.893 2.481-2.122 2.777q-.435.105-.878.104a4 4 0 0 1-.665-.058C1.57 18.68.326 17.438.059 15.923a3.77 3.77 0 0 1 .818-3.083c.992-1.18 2.696-1.63 4.123-1.124V5.477C5 3.937 6.089 2.642 7.589 2.4M3.75 13.249c-.593 0-1.152.26-1.533.714a2 2 0 0 0-.435 1.656 2.03 2.03 0 0 0 1.602 1.598c.283.05.565.042.836-.023.451-.108.779-.56.779-1.075v-2.431a2 2 0 0 0-1.25-.44m12.992.002q-.136 0-.274.02c-.832.111-1.543.788-1.687 1.61a2 2 0 0 0 .435 1.655c.63.75 1.799.92 2.615.397.258-.167.418-.504.418-.88h-.001v-2.125a2 2 0 0 0-1.506-.678m.346-9.132a28.9 28.9 0 0 0-9.218.006c-.64.105-1.121.685-1.121 1.352V6.5h11.5V5.48c0-.68-.488-1.253-1.161-1.361" clip-rule="evenodd" />
</svg>
